dist/svg/more-horiz.svg

<!-- Generated by Trend Micro Style Portal -->
<svg version="1.1" xmlns="http://www.w3.org/2000/svg" width="16" height="16" viewBox="0 0 16 16">
  <title>more-horiz</title>
  <path fill="rgb(34,34,34)" d="M4 6v3h-3v-3zM6 6v3h3v-3zM11 6v3h3v-3z"></path>
</svg>

<svg width="16" height="16" viewBox="0 0 16 16" fill="rgb(34, 34, 34)" xmlns="http://www.w3.org/2000/svg"><title>more-horiz</title><path d="M4 6V9H1V6H4ZM6 6V9H9V6H6ZM11 6V9H14V6H11Z" fill="rgb(34, 34, 34)" fill-opacity="1.00"/></svg>
